static/logos/rainbow-glyph-color.svg

<svg width="50" height="50" viewBox="0 0 50 50" fill="none" xmlns="http://www.w3.org/2000/svg">
<g clip-path="url(#clip0_1_1372)">
<path d="M38.5618 0H11.4382C5.12107 0 0 5.12107 0 11.4382V38.5618C0 44.8789 5.12107 50 11.4382 50H38.5618C44.8789 50 50 44.8789 50 38.5618V11.4382C50 5.12107 44.8789 0 38.5618 0Z" fill="url(#paint0_linear_1_1372)"/>
<path d="M27.2766 12.5784C22.96 9.98459 18.19 8.55182 13.015 8.29468C11.7948 8.23406 11.4933 8.23763 11.1285 8.31703C10.1761 8.52422 9.3881 9.35149 9.22893 10.3111C9.1504 10.7845 9.17579 14.7005 9.17579 14.7005L9.17584 14.7991L9.18906 20.4146L9.20229 26.0302L9.31112 26.3159C9.62482 27.1396 10.2418 27.7073 11.0363 27.9033C11.1955 27.9426 11.6408 27.9875 12.0256 28.0032C14.7219 28.1128 17.1485 29.145 19.0663 30.9981C21.0767 32.9406 22.2241 35.4911 22.3356 38.2647C22.3511 38.6496 22.3945 39.1035 22.4322 39.2733C22.6081 40.0679 23.1928 40.7099 24.0333 41.0312L24.3085 41.1363L29.919 41.1496L35.5053 41.1363H35.6502L37.6531 41.1496C38.8828 41.1577 39.7864 41.1432 39.9938 41.112C41.0287 40.9561 41.8814 40.1043 42.0468 39.061C42.1079 38.6755 42.0774 37.565 41.9681 36.1968C41.1889 26.4402 35.7236 17.654 27.2766 12.5784Z" fill="#EE421B"/>
<mask id="mask0_1_1372" style="mask-type:alpha" maskUnits="userSpaceOnUse" x="9" y="8" width="34" height="34">
<path d="M27.2766 12.5784C22.96 9.98459 18.19 8.55182 13.015 8.29468C11.7948 8.23406 11.4933 8.23763 11.1285 8.31703C10.1761 8.52422 9.3881 9.35149 9.22893 10.3111C9.1504 10.7845 9.17579 14.7005 9.17579 14.7005L9.17584 14.7991L9.18906 20.4146L9.20229 26.0302L9.31112 26.3159C9.62482 27.1396 10.2418 27.7073 11.0363 27.9033C11.1955 27.9426 11.6408 27.9875 12.0256 28.0032C14.7219 28.1128 17.1485 29.145 19.0663 30.9981C21.0767 32.9406 22.2241 35.4911 22.3356 38.2647C22.3511 38.6496 22.3945 39.1035 22.4322 39.2733C22.6081 40.0679 23.1928 40.7099 24.0333 41.0312L24.3085 41.1363L29.919 41.1496L35.5053 41.1363H35.6502L37.6531 41.1496C38.8828 41.1577 39.7864 41.1432 39.9938 41.112C41.0287 40.9561 41.8814 40.1043 42.0468 39.061C42.1079 38.6755 42.0774 37.565 41.9681 36.1968C41.1889 26.4402 35.7236 17.654 27.2766 12.5784Z" fill="url(#paint1_radial_1_1372)"/>
</mask>
<g mask="url(#mask0_1_1372)">
<g filter="url(#filter0_f_1_1372)">
<path d="M36.5847 2.96814C32.2681 0.374366 19.5348 1.14999 14.3598 0.89285C13.1396 0.832232 2.24876 8.21529 1.88394 8.29468C0.931577 8.50187 0.143545 9.32914 -0.015625 10.2887C1.35693 10.0491 15.9051 10.1893 20.1908 12.5784C25.548 15.5647 29.5779 16.7954 33.0287 21.4527C36.4795 26.11 39.2329 33.0598 40.1079 36.8243C40.8079 39.8359 39.7218 51.3378 39.7218 51.5444C40.7567 51.3885 51.4288 40.7633 51.5944 39.7201C51.6557 39.3345 48.9288 32.5941 48.8193 31.2259C48.0401 21.4693 45.0317 8.04376 36.5847 2.96814Z" fill="#8753C8"/>
</g>
<path fill-rule="evenodd" clip-rule="evenodd" d="M35.471 41.1364V38.61C35.471 25.4693 24.8183 14.8166 11.6775 14.8166H9.17188L9.18505 20.4146L9.19828 26.0302L9.30711 26.3159C9.62081 27.1396 10.2378 27.7073 11.0323 27.9033C11.1915 27.9426 11.6367 27.9875 12.0216 28.0032C14.7179 28.1128 17.1445 29.145 19.0623 30.9981C21.0726 32.9406 22.2201 35.4911 22.3316 38.2647C22.3471 38.6496 22.3905 39.1035 22.4281 39.2733C22.6041 40.068 23.1888 40.7099 24.0293 41.0312L24.3044 41.1363L29.9149 41.1496L35.471 41.1364Z" fill="#FFF000"/>
</g>
<mask id="mask1_1_1372" style="mask-type:alpha" maskUnits="userSpaceOnUse" x="9" y="14" width="27" height="28">
<path fill-rule="evenodd" clip-rule="evenodd" d="M35.471 41.1366V38.6102C35.471 25.4695 24.8183 14.8168 11.6775 14.8168H9.17188L9.18505 20.4148L9.19828 26.0304L9.30711 26.3161C9.62081 27.1398 10.2378 27.7075 11.0323 27.9035C11.1915 27.9428 11.6367 27.9877 12.0216 28.0034C14.7179 28.113 17.1445 29.1452 19.0623 30.9983C21.0726 32.9408 22.2201 35.4913 22.3316 38.2649C22.3471 38.6498 22.3905 39.1037 22.4281 39.2735C22.6041 40.0682 23.1888 40.7101 24.0293 41.0314L24.3045 41.1365L29.915 41.1498L35.471 41.1366Z" fill="url(#paint2_radial_1_1372)"/>
</mask>
<g mask="url(#mask1_1_1372)">
<g filter="url(#filter1_f_1_1372)">
<path d="M36.5847 9.53211C32.2681 6.93834 19.5348 7.71397 14.3598 7.45682C13.1396 7.3962 2.24876 14.7793 1.88394 14.8587C0.931577 15.0658 0.143545 15.8931 -0.015625 16.8527C1.35693 16.613 15.9051 16.7533 20.1908 19.1423C25.548 22.1286 26.5702 23.7454 30.021 28.4028C33.4718 33.0601 33.4172 42.9057 34.2922 46.6701C34.9922 49.6817 38.7324 57.5157 38.7324 57.7223C39.7673 57.5664 51.4288 47.3273 51.5944 46.284C51.6557 45.8985 48.9288 39.1581 48.8193 37.7898C48.0401 28.0333 45.0317 14.6077 36.5847 9.53211Z" fill="#FF9B00"/>
</g>
<path fill-rule="evenodd" clip-rule="evenodd" d="M29.0034 41.1486C29.0037 41.1068 29.0039 41.065 29.0039 41.0232V39.0444C29.0039 29.3154 21.117 21.4286 11.388 21.4286H9.50579C9.39947 21.4286 9.29339 21.4295 9.1875 21.4314L9.19836 26.0302L9.30719 26.3159C9.6209 27.1396 10.2378 27.7073 11.0323 27.9033C11.1916 27.9426 11.6368 27.9876 12.0217 28.0032C14.718 28.1128 17.1446 29.145 19.0624 30.9981C21.0727 32.9406 22.2202 35.4911 22.3317 38.2647C22.3472 38.6496 22.3906 39.1035 22.4282 39.2733C22.6042 40.068 23.1889 40.7099 24.0293 41.0312C24.0293 41.0312 24.2017 41.1438 24.4189 41.1438L29.0034 41.1486Z" fill="#00B1E2"/>
</g>
<mask id="mask2_1_1372" style="mask-type:alpha" maskUnits="userSpaceOnUse" x="9" y="21" width="20" height="21">
<path fill-rule="evenodd" clip-rule="evenodd" d="M29.0034 41.1473C29.0037 41.1059 29.0039 41.0645 29.0039 41.023V39.0443C29.0039 29.3153 21.117 21.4284 11.388 21.4284H9.50579C9.39947 21.4284 9.29339 21.4294 9.1875 21.4312L9.19836 26.03L9.30719 26.3157C9.6209 27.1395 10.2378 27.7072 11.0323 27.9032C11.1916 27.9425 11.6368 27.9874 12.0217 28.0031C14.718 28.1127 17.1446 29.1449 19.0624 30.9979C21.0727 32.9405 22.2202 35.4909 22.3317 38.2646C22.3472 38.6495 22.3906 39.1033 22.4282 39.2731C22.6042 40.0678 23.1889 40.7098 24.0293 41.031L24.3045 41.1362L29.0034 41.1473Z" fill="url(#paint3_radial_1_1372)"/>
</mask>
<g mask="url(#mask2_1_1372)">
<g filter="url(#filter2_f_1_1372)">
<path d="M36.5847 16.1434C32.2681 13.5496 19.5348 14.3253 14.3598 14.0681C13.1396 14.0075 2.24876 21.3906 1.88394 21.47C0.931577 21.6771 0.143545 22.5044 -0.015625 23.464C1.35693 23.2243 15.7932 24.2515 20.0789 26.6405C25.4361 29.6268 26.4978 38.4166 26.4978 38.4166C26.4978 38.4166 26.9259 52.3162 27.8009 56.0807C28.5009 59.0923 38.7324 64.127 38.7324 64.3336C39.7673 64.1777 51.4288 53.9388 51.5944 52.8953C51.6557 52.5097 48.9288 45.7694 48.8193 44.4011C48.0401 34.6446 45.0317 21.219 36.5847 16.1434Z" fill="#00DA42"/>
</g>
</g>
</g>
<defs>
<filter id="filter0_f_1_1372" x="-11.0195" y="-10.1114" width="73.6171" height="72.6596" filterUnits="userSpaceOnUse" color-interpolation-filters="sRGB">
<feFlood flood-opacity="0" result="BackgroundImageFix"/>
<feBlend mode="normal" in="SourceGraphic" in2="BackgroundImageFix" result="shape"/>
<feGaussianBlur stdDeviation="5.50193" result="effect1_foregroundBlur_1_1372"/>
</filter>
<filter id="filter1_f_1_1372" x="-11.0195" y="-3.54741" width="73.6171" height="72.2735" filterUnits="userSpaceOnUse" color-interpolation-filters="sRGB">
<feFlood flood-opacity="0" result="BackgroundImageFix"/>
<feBlend mode="normal" in="SourceGraphic" in2="BackgroundImageFix" result="shape"/>
<feGaussianBlur stdDeviation="5.50193" result="effect1_foregroundBlur_1_1372"/>
</filter>
<filter id="filter2_f_1_1372" x="-11.0195" y="3.06389" width="73.6171" height="72.2735" filterUnits="userSpaceOnUse" color-interpolation-filters="sRGB">
<feFlood flood-opacity="0" result="BackgroundImageFix"/>
<feBlend mode="normal" in="SourceGraphic" in2="BackgroundImageFix" result="shape"/>
<feGaussianBlur stdDeviation="5.50193" result="effect1_foregroundBlur_1_1372"/>
</filter>
<linearGradient id="paint0_linear_1_1372" x1="25" y1="0" x2="25" y2="50" gradientUnits="userSpaceOnUse">
<stop stop-color="#174197"/>
<stop offset="1" stop-color="#011E5A"/>
</linearGradient>
<radialGradient id="paint1_radial_1_1372" cx="0" cy="0" r="1" gradientUnits="userSpaceOnUse" gradientTransform="translate(23.1198 30.2365) rotate(133.13) scale(41.8276 41.8365)">
<stop stop-color="#EF421B"/>
<stop offset="1" stop-color="#8753C8"/>
</radialGradient>
<radialGradient id="paint2_radial_1_1372" cx="0" cy="0" r="1" gradientUnits="userSpaceOnUse" gradientTransform="translate(20.6302 30.5021) rotate(-45.6856) scale(9.98282 9.96998)">
<stop stop-color="#FFF100"/>
<stop offset="1" stop-color="#FF9A00"/>
</radialGradient>
<radialGradient id="paint3_radial_1_1372" cx="0" cy="0" r="1" gradientUnits="userSpaceOnUse" gradientTransform="translate(27.3629 23.7692) rotate(133.925) scale(18.1928 18.2827)">
<stop stop-color="#05DA40"/>
<stop offset="1" stop-color="#00B1E3"/>
</radialGradient>
<clipPath id="clip0_1_1372">
<rect width="50" height="50" fill="white"/>
</clipPath>
</defs>
</svg>

<svg xmlns="http://www.w3.org/2000/svg" width="64" height="64" fill="none" viewBox="0 0 50 50"><g clip-path="url(#a)"><path fill="url(#b)" d="M38.562 0H11.438C5.121 0 0 5.121 0 11.438v27.124C0 44.879 5.121 50 11.438 50h27.124C44.879 50 50 44.879 50 38.562V11.438C50 5.121 44.879 0 38.562 0Z"/><path fill="#EE421B" d="M27.277 12.578C22.96 9.985 18.19 8.552 13.015 8.295c-1.22-.06-1.522-.057-1.886.022-.953.207-1.74 1.034-1.9 1.994-.079.473-.053 4.39-.053 4.39v.098l.013 5.616.013 5.615.11.286c.313.824.93 1.391 1.724 1.587.16.04.605.085.99.1 2.696.11 5.122 1.142 7.04 2.995 2.01 1.943 3.158 4.493 3.27 7.267.015.385.059.838.096 1.008.176.795.76 1.437 1.601 1.758l.275.105 5.611.014 5.586-.014h.145l2.003.014c1.23.008 2.133-.007 2.34-.038 1.036-.156 1.888-1.008 2.054-2.051.06-.386.03-1.496-.079-2.864-.78-9.757-6.244-18.543-14.691-23.619Z"/><mask id="d" width="34" height="34" x="9" y="8" maskUnits="userSpaceOnUse" style="mask-type:alpha"><path fill="url(#c)" d="M27.277 12.578C22.96 9.985 18.19 8.552 13.015 8.295c-1.22-.06-1.522-.057-1.886.022-.953.207-1.74 1.034-1.9 1.994-.079.473-.053 4.39-.053 4.39v.098l.013 5.616.013 5.615.11.286c.313.824.93 1.391 1.724 1.587.16.04.605.085.99.1 2.696.11 5.122 1.142 7.04 2.995 2.01 1.943 3.158 4.493 3.27 7.267.015.385.059.838.096 1.008.176.795.76 1.437 1.601 1.758l.275.105 5.611.014 5.586-.014h.145l2.003.014c1.23.008 2.133-.007 2.34-.038 1.036-.156 1.888-1.008 2.054-2.051.06-.386.03-1.496-.079-2.864-.78-9.757-6.244-18.543-14.691-23.619Z"/></mask><g mask="url(#d)"><g filter="url(#e)"><path fill="#8753C8" d="M36.585 2.968C32.268.374 19.535 1.15 14.36.893 13.14.833 2.249 8.215 1.884 8.295c-.952.207-1.74 1.034-1.9 1.994 1.373-.24 15.921-.1 20.207 2.29 5.357 2.986 9.387 4.216 12.838 8.874 3.45 4.657 6.204 11.607 7.079 15.371.7 3.012-.386 14.514-.386 14.72 1.035-.155 11.707-10.78 11.872-11.824.062-.386-2.665-7.126-2.775-8.494-.779-9.757-3.787-23.182-12.234-28.258Z"/></g><path fill="#FFF000" fill-rule="evenodd" d="M35.471 41.136V38.61c0-13.14-10.653-23.793-23.793-23.793H9.172l.013 5.598.013 5.615.11.286c.313.824.93 1.391 1.724 1.587.16.04.605.085.99.1 2.696.11 5.123 1.142 7.04 2.995 2.01 1.943 3.158 4.493 3.27 7.267.015.385.058.838.096 1.008.176.795.76 1.437 1.601 1.758l.275.105 5.61.014 5.557-.014Z" clip-rule="evenodd"/></g><mask id="g" width="27" height="28" x="9" y="14" maskUnits="userSpaceOnUse" style="mask-type:alpha"><path fill="url(#f)" fill-rule="evenodd" d="M35.471 41.137V38.61c0-13.14-10.653-23.793-23.793-23.793H9.172l.013 5.598.013 5.615.11.286c.313.824.93 1.392 1.724 1.588.16.039.605.084.99.1 2.696.109 5.123 1.141 7.04 2.994 2.01 1.943 3.158 4.493 3.27 7.267.015.385.058.839.096 1.008.176.795.76 1.437 1.601 1.758l.276.105 5.61.014 5.556-.013Z" clip-rule="evenodd"/></mask><g mask="url(#g)"><g filter="url(#h)"><path fill="#FF9B00" d="M36.585 9.532c-4.317-2.594-17.05-1.818-22.225-2.075-1.22-.06-12.111 7.322-12.476 7.402-.952.207-1.74 1.034-1.9 1.994 1.373-.24 15.921-.1 20.207 2.29 5.357 2.986 6.38 4.602 9.83 9.26 3.45 4.657 3.396 14.503 4.271 18.267.7 3.012 4.44 10.846 4.44 11.052 1.035-.156 12.697-10.395 12.862-11.438.062-.386-2.665-7.126-2.775-8.494-.779-9.757-3.787-23.182-12.234-28.258Z"/></g><path fill="#00B1E2" fill-rule="evenodd" d="M29.003 41.149v-2.105c0-9.729-7.886-17.615-17.615-17.615H9.506c-.107 0-.213 0-.319.002l.011 4.6.11.285c.313.824.93 1.391 1.724 1.587.16.04.605.085.99.1 2.696.11 5.123 1.142 7.04 2.995 2.01 1.943 3.158 4.493 3.27 7.267.015.385.059.838.096 1.008.176.795.76 1.437 1.601 1.758 0 0 .173.113.39.113l4.584.005Z" clip-rule="evenodd"/></g><mask id="j" width="20" height="21" x="9" y="21" maskUnits="userSpaceOnUse" style="mask-type:alpha"><path fill="url(#i)" fill-rule="evenodd" d="M29.003 41.147v-2.103c0-9.729-7.886-17.616-17.615-17.616H9.506c-.107 0-.213.001-.319.003l.011 4.599.11.286c.313.824.93 1.391 1.724 1.587.16.04.605.084.99.1 2.696.11 5.123 1.142 7.04 2.995 2.01 1.942 3.158 4.493 3.27 7.267.015.385.059.838.096 1.008.176.795.76 1.437 1.601 1.758l.276.105 4.698.011Z" clip-rule="evenodd"/></mask><g filter="url(#k)" mask="url(#j)"><path fill="#00DA42" d="M36.585 16.143c-4.317-2.593-17.05-1.818-22.225-2.075-1.22-.06-12.111 7.323-12.476 7.402-.952.207-1.74 1.034-1.9 1.994 1.373-.24 15.81.788 20.095 3.177 5.357 2.986 6.419 11.776 6.419 11.776s.428 13.9 1.303 17.664c.7 3.011 10.931 8.046 10.931 8.253 1.035-.156 12.697-10.395 12.862-11.439.062-.385-2.665-7.126-2.775-8.494-.779-9.756-3.787-23.182-12.234-28.258Z"/></g></g><defs><radialGradient id="c" cx="0" cy="0" r="1" gradientTransform="matrix(-28.59569 30.52597 -30.53246 -28.60177 23.12 30.236)" gradientUnits="userSpaceOnUse"><stop stop-color="#EF421B"/><stop offset="1" stop-color="#8753C8"/></radialGradient><radialGradient id="f" cx="0" cy="0" r="1" gradientTransform="rotate(-45.686 46.52 -9.236) scale(9.98282 9.96998)" gradientUnits="userSpaceOnUse"><stop stop-color="#FFF100"/><stop offset="1" stop-color="#FF9A00"/></radialGradient><radialGradient id="i" cx="0" cy="0" r="1" gradientTransform="matrix(-12.62064 13.10334 -13.16809 -12.683 27.363 23.77)" gradientUnits="userSpaceOnUse"><stop stop-color="#05DA40"/><stop offset="1" stop-color="#00B1E3"/></radialGradient><filter id="e" width="73.617" height="72.66" x="-11.02" y="-10.111" color-interpolation-filters="sRGB" filterUnits="userSpaceOnUse"><feFlood flood-opacity="0" result="BackgroundImageFix"/><feBlend in="SourceGraphic" in2="BackgroundImageFix" result="shape"/><feGaussianBlur result="effect1_foregroundBlur_1_1372" stdDeviation="5.502"/></filter><filter id="h" width="73.617" height="72.273" x="-11.02" y="-3.547" color-interpolation-filters="sRGB" filterUnits="userSpaceOnUse"><feFlood flood-opacity="0" result="BackgroundImageFix"/><feBlend in="SourceGraphic" in2="BackgroundImageFix" result="shape"/><feGaussianBlur result="effect1_foregroundBlur_1_1372" stdDeviation="5.502"/></filter><filter id="k" width="73.617" height="72.273" x="-11.02" y="3.064" color-interpolation-filters="sRGB" filterUnits="userSpaceOnUse"><feFlood flood-opacity="0" result="BackgroundImageFix"/><feBlend in="SourceGraphic" in2="BackgroundImageFix" result="shape"/><feGaussianBlur result="effect1_foregroundBlur_1_1372" stdDeviation="5.502"/></filter><linearGradient id="b" x1="25" x2="25" y1="0" y2="50" gradientUnits="userSpaceOnUse"><stop stop-color="#174197"/><stop offset="1" stop-color="#011E5A"/></linearGradient><clipPath id="a"><path fill="#fff" d="M0 0h50v50H0z"/></clipPath></defs></svg>
